X: 1
T: Tolppatanssi
O: Finland
S: printed copy of unknown origin
Z: 2013 John Chambers <jc:trillian.mit.edu>
M: 2/4
L: 1/16
K: Am
|: "Am"c2A2 c2A2 | e2ed c2c2 | "G7"d2B2 d2B2 | f2fe d4 :|
|: "C"e4 g4 | "G7"d4 f4 | "C"e2ee "G7"f2d2 | "C"c4 c4 |\
      e4 g4 | "G7"d4 f4 | "C"e2ee "G7"f2d2 | "C"c4 c4 :|
|: "Am"e2dc "E7"d2cB | "Am"A2A2 c2c2 | e2d2 c4 |\
   "Am"e2dc "E7"d2cB | "Am"A2A2 c2c2 | e4   A4 :|
